X:2542
T:Hen's Concert,The. JMT100
T:Hens March To The Midden. JMT100
O:england
M:4/4
L:1/8
Q:200
S:J.Moore,Tyneside,1841.(70)
R:Air
A:Northumbria
K:D
A2|:d4A3G|FEFGA3d|BdBdg2f2|edefe2A2|
d4A3G|FEFGA3d|Bcde fgab|f2e2dd2:|
|:z2|.A2.A.A.A2.A2|A2A-fe2f2|.A2.A.A.A2.A2|A2Afe2f2|d2ddd2d2|d2dgf2a2|
d2ddd2d2|d2dgf2a2|agfa gfeg|f2ge dcBA|defga2ba/f/|f2e2d2:|]


